X:1
T:Title
%%score { ( 1 3 ) | ( 2 4 ) }
L:1/8
M:4/4
K:Ab
V:1 treble nm="Grand Piano"
V:3 treble 
V:2 bass 
V:4 bass 
V:1
 z4 z2[Q:1/4=100] [CE]>[CE] | [Ec]2 [Ec]>[=D_c] [E=c]2 [Fd]>[Ec] | c B2 B E2 E>E | %3
 B2 B>=A B2 [Fd]>[Fd] | [Ec]6 [CE]>[CE] | [Ec]2 [Ec]>[=D_c] [E=c]2 [Fd]>[Ec] | c B2 B F2 G>A | %7
 [=Dc] [DB]2 [DG] [DB] [DA]2 [DF] |[M:3/4] E6 |[M:1/4] E2 | %10
[M:4/4] [Ge]2 [Ge]>[Ge] [Bd]2 [Ac]>[GB] | A6 z2 | c2 A>c e2 d>c | G2 z2 z4 | %14
 [Cc]2 [CB]>[DA] [Cc]2 [EB]>[EB] |[M:9/8] [Ee]2 [_GA]- [GA]/[GA]/ [Fd]2- [Fd][Ec]>[Ed] | %16
 [Ee] A2- ABc c2 B |[M:3/4] [CA]6 |] %18
V:2
 z4 z2 [A,,A,]>[A,,A,] | [A,,A,]2 [A,,A,]>[A,,A,] [A,,A,]2 [A,,A,]>[A,,A,] | %2
 [E,A,E] [E,G,D]2 [E,G,D] [E,G,D]2 [E,G,D]>[E,G,D] | %3
 [E,G,D]2 [E,G,D]>[E,_G,C] [E,=G,D]2 [E,G,]>[E,G,] | [A,,A,]6 [A,,A,]>[A,,A,] | %5
 [A,,A,]2 [A,,A,]>[A,,A,] [A,,A,]2 [A,,A,]>[A,,A,] | %6
 [E,A,E] [E,G,D]2 [E,G,D] [E,D]2 [E,B,D]>[F,A,C] | %7
 [B,,A,] [B,,F,]2 [B,,F,] [B,,F,] [B,,F,]2 [B,,A,] |[M:3/4] [E,G,]6 |[M:1/4] [E,G,]2 | %10
[M:4/4] [E,B,]2 [E,B,]>[E,B,] [E,E]2 [E,E]>[E,D] | C2 z2 z4 | %12
 [A,E]2 [A,CE]>[A,E] [CE]2 [B,E]>[K:bass][A,E] | [E,E]2 [F,=D]2 [G,_D]2 [E,G,D]>[E,G,D] | %14
 [A,,A,]2 [A,,E,]>[A,,F,] [A,,A,]2 [E,G,]>[D,G,] | %15
[M:9/8] [C,A,]2 [C,A,]- [C,A,]/[C,A,]/ [D,A,]2- [D,A,][A,,A,]>[B,,G,] | %16
 [C,A,] [F,A,C]2- [F,A,C][F,A,=D][E,A,E] [E,A,E]2 [E,G,_D] |[M:3/4] [A,,A,]6 |] %18
V:3
 x8 | x8 | x8 | x8 | x8 | x8 | x8 | x8 |[M:3/4] x6 |[M:1/4] x2 |[M:4/4] x8 | z2 F>F E2 [A,EA]>B | %12
 x8 | B2- [AB-]2 [EB]2 E>E | x8 |[M:9/8] x9 | x9 |[M:3/4] x6 |] %18
V:4
 x8 | x8 | x8 | x8 | x8 | x8 | x8 | x8 |[M:3/4] x6 |[M:1/4] x2 |[M:4/4] x8 | %11
 A,2- [A,-D]>[A,-D] [A,C]2 C,>[E,G,E] | x15/2[K:bass] x/ | x8 | x8 |[M:9/8] x9 | x9 |[M:3/4] x6 |] %18

